!!!!SEGMENT: sonata26-2.krn
!!!COM: Beethoven, Ludwig van
!!!CDT: 1770///-1827///
!!!OTL: Piano Sonata no. 26 in E-flat major
!!!OTP: les adieux
!!!ODT: 1809///-1810///
!!!ODE: à l'Archiduc Rodolphe
!!!OPS: 81a
!!!OMV: 2
!!!OMD: L'Absence: Andante espressivo
**kern	**kern	**dynam
*staff2	*staff1	*staff1/2
*Ipiano	*Ipiano	*Ipiano
*clefF4	*clefG2	*
*k[b-e-a-]	*k[b-e-a-]	*
*c:	*c:	*
*M2/4	*M2/4	*
*MM54	*MM54	*
=1-	=1-	=1-
*^	*	*
*	*^	*	*
8e-L<	2e-/	2C	(16.gLL	.
.	.	.	32f#JJk	.
8F#	.	.	4.an)	.
8An	.	.	.	.
8F#J	.	.	.	.
*	*v	*v	*	*
=2	=2	=2	=2
*	*^	*	*
8e-L<	2e-/	2C	(16.gLL	.
.	.	.	32f#JJk	.
8F#	.	.	4an)	.
8An	.	.	.	.
8F#J	.	.	(16.aLL	.
.	.	.	32ee-JJk)	.
*v	*v	*v	*	*
=3	=3	=3
*	*^	*
8r	(8ee-L	8rc	.
8BBn 8G	16.ddL	8d	.
.	32gJJk)	.	.
8r	(8gL	8r	.
8D 8An	16.f#L	8c	.
.	32anJJk)	.	.
=4	=4	=4	=4
8r	(16anLK	8rc	.
.	[8.bnJ)	.	.
8GG 8GL<	.	8Bn 8dL	.
8GG 8GJ	8b]	8B 8dJ	.
.	.	(cc32qLLL	.
.	.	b32q	.
.	.	a32qJJJ	.
8r	8ryy	(16bLL)	.
.	.	16ccJJ)	.
!!LO:LB:g=original
=5	=5	=5	=5
*^	*	*	*
8a-X>L	2F	(16.ee-LL	2a-X/	.
.	.	32ddJJk	.	.
8Bn	.	4.ff)	.	.
8d	.	.	.	.
8BJ	.	.	.	.
*	*	*v	*v	*
=6	=6	=6	=6
.	.	(dd16qLL	.
.	.	ff16qJJ	.
*	*	*^	*
8a->L	2F	(16.ee-LL)	2a-/	.
.	.	32ddJJk	.	.
8Bn	.	4ff)	.	.
8d	.	.	.	.
8BJ	.	(16.ddLL	.	.
.	.	32aa-JJk)	.	.
*v	*v	*	*	*
=7	=7	=7	=7
8r	(8aa-L	8re	.
8E- 8c	16.ggL	8g	.
.	32ccJJk)	.	.
8r	(8ccL	8re	.
8G 8d	16.bnL	8f	.
.	32ddJJk)	.	.
=8	=8	=8	=8
8r	(16ddLK	8re	.
.	[8.ee-J)	.	.
8C 8cL	.	8e-L	.
16C 16cJk	16ee-]	16e-Jk	.
16c 16e-LL	(16a-LL	8.ryy	<
16B- 16d- 16e-	16g	.	.
16A- 16c 16e-JJ	16a-JJ)	.	.
*	*v	*v	*
=9	=9	=9
8G 8B- 8e-L	8ccL	.
.	(b-32qLLL	.
.	cc32q	.
.	b-32q	.
.	an32qJJJ	.
[8G [8B- [8enJ	16.b-L)	.
.	32ccJJk	.
16G] 16B-] 16eLL]	([8dd-L	.
16F 16A- 16d-	.	.
16En 16G 16c	32dd-LL]	.
.	32cc	.
16E 16G 16cJJ	32bb-	.
.	32ggJJJ)	.
!!LO:LB:g=original
=10	=10	=10
!	!	!LO:HP:i:t=dim.
8En 8G 8cL	(8.ggL	>
8F 8A- 8cJ	.	.
.	32bb-LL	.
.	32aa-JJJ)	.
4r	8r	.
.	(16a-LL	.
.	16gJJ)	.
=11	=11	=11
*^	*^	*
8E-XL	4.DD	(16.gLL	4.An 4.c	.
.	.	32f#JJk	.	<
8FF#	.	4an)	.	.
8AAnJ	.	.	.	.
!	!	!	!	!LO:DY:rj
8ryy	8BB- 8D 8B-	(16.aLL	8d	sfp
.	.	32gJJk)	.	.
*v	*v	*	*	*
=12	=12	=12	=12
!	!	!	!LO:DY:rj
8AAn 8D 8AnL	(16.gLL	8c 8dL	sfp
.	32f#JJk)	.	.
!	!	!	!LO:DY:rj
8GG 8D 8G	(16.anLL	8B- 8d	sf
.	32gJJk)	.	.
8FF# 8D 8F#J	(16.b-LL	8An 8dJ	>
.	32aJJk)	.	]
8r	(32f#LLL	8ryy	p
.	32a	.	>
.	32cc	.	.
.	32ee-JJJ	.	]]
*	*v	*v	*
=13	=13	=13
2r	32ddLLL	.
.	32cc	.
.	32b-	.
.	32anJJJ	.
.	32ccLLL	.
.	32ff#	.
.	32aan	.
.	32cccJJJ	.
.	32bb-LLL	.
.	32aa	.
.	32gg	.
.	32ff#JJJ	.
.	32aaLLL	.
.	32ccc	.
.	32ddd	.
.	32eee-JJJ	.
!!LO:LB:g=original
=14	=14	=14
2r	32dddLLL	.
.	32ccc	.
.	32bb-	.
.	32aanJJJ	.
.	32bb-LLL	.
.	32aa	.
.	32gg	.
.	32ff#JJJ	.
.	32cccLLL	.
.	32aa	.
.	32gg	.
.	32ff#JJJ)	.
.	(32aa'LLL	<
.	32ff#'	.
.	32ee-'	.
.	32dd'JJJ)	.
=15	=15	=15
!	!LO:TX:a:i:t=cantabile	!LO:DY:b=2:rj
32F# 32AnLLL	(8ddL	p >
32d	.	.
32F# 32A	.	.
32dJJJ	.	.
32F# 32ALLL	[8anJ)	]
32d	.	.
32F# 32A	.	.
32dJJJ	.	.
32F# 32ALLL	(8aL]	.
32d	.	.
32F# 32A	.	.
32dJJJ	.	.
32G 32BnLLL	16bnL	.
32d	.	.
32G 32B	16gJJ)	.
32dJJJ	.	.
=16	=16	=16
32An 32cLLL	(8gL	.
32d	.	.
32A 32c	.	.
32dJJJ	.	.
.	(f#32qLLL	.
.	g32q	.
.	f#32q	.
.	en32qJJJ	.
32A 32cLLL	16f#L)	.
32d	.	.
32A 32c	16gJJ)	.
32dJJJ	.	.
32A 32cLLL	(16a-'LL	<
32d	.	.
32G 32Bn	16bn'JJ)	.
32dJJJ	.	.
32F# 32ALLL	(32ccLLL	.
32d	32cc#)	.
32F# 32A	(32cc#	.
32dJJJ	32ddJJJ)	.
!!LO:LB:g=original
=17	=17	=17
!	!	!LO:DY:rj
32F# 32AnLLL	(32cc#LLL	p
32d	32dd	>
32F# 32A	32een	.
32dJJJ	32dd'JJJ)	.
32F# 32ALLL	[8an	]
32d	.	.
32F# 32A	.	.
32dJJJ	.	.
32F# 32ALLL	32aLLL]	.
32d	(64bnL	.
.	64aJJJJ)	.
32F# 32A	(64bLLLL	.
.	64a)	.
32dJJJ	(64ccn	.
.	64bJJJJ)	.
32G 32BnLLL	(64ccLLLL	.
.	64b)	.
32d	(64dd	.
.	64cc#JJJJ)	.
32G 32B-	(128ddLLLLL	.
.	128cc#	.
.	128een	.
.	128ddJJ	.
32dJJJ	32gJJJ)	.
=18	=18	=18
32An 32cLLL	(8gL	.
32d	.	.
32A 32c	.	.
32dJJJ	.	.
32A 32cLLL	16f#tL	.
32d	.	.
.	(e-16qLL	.
.	f#16qJJ	.
32A 32c	16gJJ))	.
32dJJJ	.	.
32A 32cLLL	(16an'LL	<
32d	.	.
32G 32B-X	16b-X'JJ)	.
32dJJJ	.	.
32F# 32ALLL	(32ccLLL	.
32d	32cc#)	.
32F# 32A	(32cc#	.
32dJJJ	32ddJJJ)	.
!!LO:LB:g=original
=19	=19	=19
!	!	!LO:DY:rj
32G' 32B-'LLL	16ddLL	sf
32d'	.	.
32f#'	16dd 16bb-JJ	.
32g'JJJ	.	.
32d'LLL	16r	.
32B-'	.	.
!	!	!LO:HP:i:t=dim.
32An'	16dd 16bb-	>
32G'JJJ	.	.
32D' 32F#'LLL	16r	.
32A'	.	.
32c'	16cc 16aan	.
32D'JJJ	.	.
32E-'LLL	16r	.
32G'	.	.
32B-'	16b- 16gg	.
32E-'JJJ	.	.
=20	=20	=20
32E- 32GLLL	16r	sf
32B-	.	.
32d	16g 16b- 16gg	.
32e-JJJ	.	.
!	!	!LO:HP:i:t=dim.
32B-LLL	16r	>
32G	.	.
32F	16g 16ee- 16gg	.
32E-JJJ	.	.
32GG 32BBnLLL<	16r	.
32D	.	.
32G	16g 16dd 16ff	.
32BBJJJ	.	.
32CLLL	16r	.
32E-	.	.
32G	16g 16cc 16ee-	.
32CJJJ	.	.
!!LO:LB:g=original
=21	=21	=21
*^	*^	*
(8d-L	2BB- 2d-	(16.ffLL	2g 2b- 2dd-	.
.	.	32eenJJk	.	.
8En	.	4.gg)	.	.
8G	.	.	.	.
8EJ)	.	.	.	.
=22	=22	=22	=22	=22
(8d-L	4.BB- 4.d-	(16.ffLL	4.g 4.b- 4.dd-	.
.	.	32eenJJk	.	.
.	.	.	.	.
8En	.	4gg)	.	.
8G	.	.	.	.
.	.	.	.	.
8EJ)	8BB-	(16.ggLL	8dd-	.
.	.	32ddd-JJ)	.	.
*v	*v	*	*	*
=23	=23	=23	=23
8r	(8ddd-L	8rg	.
8AA- 8C 8F	16.cccL	8cc	.
.	32ffJJk)	.	.
8r	(8ffL	8rg	.
8C 8G 8en	16.eenL	8b-	.
.	32ggJJk)	.	.
=24	=24	=24	=24
8r	(16ggLK	8rg	.
.	[8.aa-J)	.	.
8F 8fL	.	8a-L	.
16F 16fJk	16aa-]	16a-Jk	.
*clefG2	*	*	*
(16f 16a-LL	8.ryy	(16dd-LL	<
16e-X 16g- 16a-	.	16cc	.
16d-) 16f 16a-JJ	.	16dd-JJ)	.
*	*v	*v	*
=25	=25	=25
8c 8e- 8a-L	8ee-L	.
.	(32ee-qLL	.
.	32ffq	.
.	32ee-q	.
.	32ddnqJJ	.
[8c [8e- [8anJ	16.ee-L)	.
.	32ffJJk	.
16c] 16e-] 16aLL]	([8gg-	.
16B- 16d 16g-	.	.
16An 16c 16f	32gg-LLL]	.
.	32ff	.
16A 16c 16fJJ	32eee-	.
.	32cccJJJ)	.
!!LO:LB:g=original
=26	=26	=26
(8An 8c 8fL	(8.cccL	>
8B-) 8d- 8fJ	.	.
.	32eee-LL	.
.	32ddd-JJJ)	.
4r	8r	.
.	(16g-LL	.
.	16fJJ)	.
*clefF4	*	*
=27	=27	=27
*^	*^	*
8D-L	4.CC	(16.fLL	4.G 4.B- 4.d-	<
.	.	32enJJk	.	.
8EEn	.	4gn)	.	.
8GGJ	.	.	.	.
!	!	!	!	!LO:DY:rj
8AAA- 8CC 8AA-	8ryy	(16.gLL	8A- 8c	sf
.	.	32fJJk)	.	.
*v	*v	*	*	*
=28	=28	=28	=28
8GGG 8CC 8GGL	(16.fLL	8B- 8cL	sf
.	32enJJk	.	.
8FFF 8CC 8FF	(16.gLL)	8A- 8c	sf
.	32fJJk	.	.
8CC 8EEnJ	(16.a-LL)	8G 8cJ	sf
.	32gJJk	.	.
8r	(32eLLL)	8ryy	p
.	32g	.	.
.	32b-	.	.
.	32dd-JJJ	.	.
*	*v	*v	*
=29	=29	=29
2r	32ccLLL<	.
.	32b-	.
.	32a-	.
.	32gJJJ	.
.	32b-LLL	.
.	32een	.
.	32gg	.
.	32bb-JJJ	.
.	32aa-LLL	.
.	32gg	.
.	32ff	.
.	32eeJJJ	.
.	32ggLLL	.
.	32bb-	.
.	32ccc	.
.	32ddd-JJJ	.
!!LO:LB:g=original
=30	=30	=30
!!LO:TX:a:B:t=Poco ritard.
2r	32cccLLL	.
.	32bb-	.
.	32aa-	.
.	32ggJJJ	.
.	32bb-LLL	.
.	32gg	.
.	32ff	.
.	32eenJJJ	.
.	32bb-LLL	<
.	32gg	.
.	32ff	.
.	32eeJJJ)	.
*	*8va	*
.	32gg' (32ggg'LLL<	.
.	32een' 32eeen'	.
.	32dd-' 32ddd-'	.
.	32cc' 32ccc'JJJ)	.
*	*X8va	*
=31	=31	=31
!!LO:TX:a:B:t=a Tempo
!	!LO:TX:b:i:t=cantabile	!
32En 32GLLL	8cc (8cccL	.
32c	.	.
32E 32G	.	.
32cJJJ	.	.
32E 32GLLL	[8g [8ggJ)	.
32c	.	.
32E 32G	.	.
32cJJJ	.	.
32E 32GLLL	8g] (8ggL]	.
32c	.	.
32E 32G	.	.
32cJJJ	.	.
32F 32AnLLL	16an 16aanL	.
32c	.	.
32F 32A	16f 16ffJJ)	.
32cJJJ	.	.
=32	=32	=32
32G 32B-LLL	8f (8ffL	.
32c	.	.
32G 32B-	.	.
32cJJJ	.	.
.	(32eenqLLL	.
.	32ffq	.
.	32eeq	.
.	32ddnqJJJ	.
32G 32B-LLL	16en 16eeL)	.
32c	.	.
32G 32B-	16f 16ffJJ)	.
32cJJJ	.	.
32G 32B-LLL	16g' (16gg'LL	<
32c	.	.
32F 32An	16an' 16aan'JJ)	.
32cJJJ	.	.
32En 32GLLL	32b- (32bb-LLL	.
32c	32bn 32bbn)	.
32E 32G	(32b 32bb	.
32cJJJ	32cc 32cccJJJ)	.
!!LO:LB:g=original
=33	=33	=33
32En 32GLLL	(32bbnLLL	p
32c	32ccc	.
32E 32G	32ddd	.
32cJJJ	32cccJJJ)	.
32E 32GLLL	[8gg	.
32c	.	.
32E 32G	.	.
32cJJJ	.	.
32E 32GLLL	32ggLLL]	.
32c	(64aanL	.
.	64ggJJJJ)	.
32E 32G	(64aaLLLL	.
.	64gg)	.
32cJJJ	(64bb-	.
.	64aaJJJJ)	.
32F 32AnLLL	(64bb-LLLL	.
.	64aa)	.
32c	(64ccc	.
.	64bbnJJJJ)	.
32F 32A	(128cccLLLL	.
.	128bb	.
.	128ddd	.
.	128ccc	.
32cJJJ	64fff	.
.	64ffJJJJ)	.
=34	=34	=34
32G 32B-LLL	(8f 8ffL	.
32c	.	.
32G 32B-	.	.
32cJJJ	.	.
.	(>32eenqLLL	.
.	32ffq	.
.	32eeq	.
.	32ddnqJJJ	.
32G 32B-LLL	16en 16eeL)	.
32c	.	.
32G 32B-	16f 16ffJJ)	.
32cJJJ	.	.
32G 32B-LLL	16g' (16gg'LL	<
32c	.	.
32F 32A-X	16a-X' 16aa-X'JJ)	.
32cJJJ	.	.
32En 32GLLL	32b- (32bb-LLL	.
32c	32bn 32bbn)	.
32E 32G	32b (32bb	.
32cJJJ	32cc 32cccJJJ)	.
!!LO:LB:g=original
=35	=35	=35
32F' 32A-'LLL	16cc' 16aa-' 16ccc'LL	sf
32c'	.	.
32en'	16aa-' 16ccc' 16aaa-'JJ	.
32f'JJJ	.	.
32c'LLL	16r	.
32A-'	.	.
!	!	!LO:HP:i:t=dim.
32G	16cc 16aa-	>
32F'JJJ	.	.
32C' 32En'LLL	16r	.
32G'	.	.
32B-'	16b- 16gg	.
32C'JJJ	.	.
32D-'LLL	16r	.
32F'	.	.
32A-'	16a- 16ff	.
32D-'JJJ	.	.
=36	=36	=36
32D- 32FLLL	16a- 16ffLL	sf
32A-	.	.
32c	16ff 16aa- 16fffJJ	.
32d-JJJ	.	.
32A-LLL	16r	.
32F	.	.
!	!	!LO:HP:i:t=dim.
32E-	16f 16a- 16ff	>
32D-JJJ	.	.
32FF 32AAnLLL	16r	.
32C	.	.
32F	16f 16cc 16ee-	.
32AAJJJ	.	.
32BB-LLL	16r	.
32D-	.	.
32F	16f\ 16b-\ 16dd-\	.
32BB-JJJ	.	.
=37	=37	=37
*^	*^	*
*ped	*	*	*	*
8A-XL	2GG	(16.ccLL	2dn 2f 2a-X	.
.	.	32bnJJk	.	.
8BBn	.	4.dd)	.	.
8D	.	.	.	.
*Xped	*	*	*	*
8BBJ	.	.	.	.
*v	*v	*	*	*
*	*v	*v	*
!!LO:LB:g=original
=38	=38	=38
2r	(16.ccLL	.
.	32bnk	.
.	16ddJJ)	.
.	16r	.
.	(16.ddLL	.
.	32cck	.
.	16ee-JJ)	.
.	16r	.
=39	=39	=39
*^	*^	*
*ped	*	*	*	*
8dL	2BBn	(16.ee-LL	2f 2a-	p
.	.	32ddJJk	.	.
8F	.	4.ff)	.	.
8A-	.	.	.	.
*Xped	*	*	*	*
8FJ	.	.	.	.
*v	*v	*	*	*
*	*v	*v	*
=40	=40	=40
2r	(16.ee-LL	.
.	32ddk	.
.	16ffJJ)	.
.	16r	.
.	(16.ffLL	.
.	32ee-k	.
.	16ggJJ)	.
.	16r	.
=41	=41	=41
8BB-Xq	.	.
*ped	*	*
8dL	16.a- 16.dd (16.ggLL	.
.	32ffJk	.
8F	[8aa-J)	.
8d	16.aa-LL]	.
.	32ffJk	.
8A-J	[8dddJ	.
*clefG2	*	*
=42	=42	=42
8fL	16.dddLL]	.
.	32aa-Jk	.
8d	[8fffJ	.
8a-	16.fffLL]	.
.	32dddJk	.
*Xped	*	*
8fJ	8aaa-J	.
!!LO:TX:i:b:t=attacca:rj
==	==	==
*-	*-	*-
!!!RDF**kern: > = above
!!!RDF**kern: < = below
!!!verovio: beamFrenchStyle
!!!LOR: Durand 1915, plates 9327/9328, Paul Dukas, ed.
!!!PED: Dukas, Paul
!!!URL-github: https://github.com/craigsapp/beethoven-piano-sonatas/blob/main/kern/sonata26-2.krn
!!!URL-vhv: https://verovio.humdrum.org/?file=beethoven/sonatas/sonata26-2.krn
!!!URL-pdf: https://github.com/craigsapp/beethoven-piano-sonatas/blob/master/reference-edition/sonata26-2.pdf
!!!ENC: Craig Stuart Sapp
!!!END: 2008/10/28
!!!EED: Craig Stuart Sapp
!!!EEV: 2020/08/23
